packages/foundations/assets/icons/functional/images/transportation/bus_14.svg

<svg width="14" height="14" viewBox="0 0 14 14" fill="none" xmlns="http://www.w3.org/2000/svg">
<g clip-path="url(#clip0_187_874)">
<path fill-rule="evenodd" clip-rule="evenodd" d="M9.4053 1.39999C10.08 1.39999 10.4394 1.4694 10.8139 1.66972C11.1641 1.85697 11.443 2.13595 11.6303 2.48608C11.7874 2.77986 11.864 3.06433 11.8897 3.4989L12.6 3.49999V6.29999H11.9V10.3026C11.9 10.6414 11.8596 10.9415 11.7238 11.172C11.588 11.4026 11.4029 11.5974 11.2 11.7068V12.6H9.45002V11.9H4.55002V12.6H2.80002L2.80005 11.7084C2.57697 11.5824 2.39747 11.3987 2.27625 11.172C2.16164 10.9577 2.11268 10.7515 2.10222 10.442L2.10002 6.29999H1.40002V3.49999L2.11033 3.4989C2.13605 3.06433 2.21263 2.77986 2.36975 2.48608C2.557 2.13595 2.83598 1.85697 3.18611 1.66972C3.52946 1.4861 3.91033 1.39999 4.47613 1.40148L9.4053 1.39999ZM4.53617 8.92499H3.48617V9.97499H4.53617V8.92499ZM10.562 8.92499H9.51196V9.97499H10.562V8.92499ZM9.52391 2.80069C9.26419 2.80007 4.70147 2.80069 4.47613 2.80069C4.2508 2.80069 3.94946 2.80069 3.72871 2.98906C3.50796 3.17744 3.50238 3.50148 3.50072 3.7761C3.4996 3.95918 3.50008 5.20842 3.50215 7.52382C4.81723 7.62503 5.98346 7.67553 7.00002 7.67553C8.01659 7.67553 9.18282 7.62503 10.4979 7.52382C10.4989 5.22191 10.4993 3.97267 10.4993 3.7761C10.4993 3.48126 10.4934 3.17682 10.2751 2.98906C10.0567 2.8013 9.78364 2.8013 9.52391 2.80069ZM9.10002 3.49999V4.68999H4.90002V3.49999H9.10002Z" fill="#1A1C1F"/>
</g>
<defs>
<clipPath id="clip0_187_874">
<rect width="14" height="14" fill="white"/>
</clipPath>
</defs>
</svg>

<svg xmlns="http://www.w3.org/2000/svg" width="14" height="14" fill="none"><g clip-path="url(#a)"><path fill="#1A1C1F" fill-rule="evenodd" d="M9.405 1.4c.675 0 1.034.07 1.409.27.35.187.629.466.816.816.157.294.234.578.26 1.013l.71.001v2.8h-.7v4.003c0 .338-.04.638-.176.869a1.43 1.43 0 0 1-.524.535v.893H9.45v-.7h-4.9v.7H2.8v-.892a1.34 1.34 0 0 1-.524-.536c-.114-.214-.163-.42-.174-.73L2.1 6.3h-.7V3.5l.71-.001c.026-.435.103-.72.26-1.013.187-.35.466-.629.816-.816.343-.184.724-.27 1.29-.269zM4.536 8.925h-1.05v1.05h1.05zm6.026 0h-1.05v1.05h1.05zM9.524 2.801H4.476c-.225 0-.527 0-.747.188-.221.188-.227.512-.228.787q-.001.274.001 3.748A46 46 0 0 0 7 7.676q1.526 0 3.498-.152l.001-3.748c0-.295-.006-.6-.224-.787s-.491-.188-.751-.188M9.1 3.5v1.19H4.9V3.5z" clip-rule="evenodd"/></g><defs><clipPath id="a"><path fill="#fff" d="M0 0h14v14H0z"/></clipPath></defs></svg>
